X:2
T:The Caribou 
C:Andy Hornby 1998
Q:1/4=200
I:abc2nwc
M:4/4
L:1/8
K:G
dc|B2AB GABG|c2E2E2AG|F2EF DFAc|BGBd A2dc|
B2AB GABG|c2E2E2AG|F2EF DcAF|G4-G2:|
|:AB|c2E2EcBA|B2D2DBAG|F2EF DFAF|GBDG BDGB|
c2E2EcBA|B2D2DBAG|F2EF DcAF|G4-G2:|
%%vskip 2.5cm
